svg/color/ondo.svg

<svg width="64" height="65" viewBox="0 0 64 65" fill="none" xmlns="http://www.w3.org/2000/svg">
<g clip-path="url(#clip0_11313_5368)">
<rect y="0.303711" width="64" height="64" rx="32" fill="white"/>
<path fill-rule="evenodd" clip-rule="evenodd" d="M32 0.303711C49.6744 0.303711 64 14.6294 64 32.3037C64 49.9781 49.6744 64.3037 32 64.3037C14.3256 64.3037 0 49.9781 0 32.3037C0 14.6294 14.3256 0.303711 32 0.303711Z" fill="white"/>
<mask id="mask0_11313_5368" style="mask-type:luminance" maskUnits="userSpaceOnUse" x="8" y="8" width="49" height="49">
<path d="M56.0004 8.30396H8.00006V56.3042H56.0004V8.30396Z" fill="white"/>
</mask>
<g mask="url(#mask0_11313_5368)">
<path d="M33.7021 56.3042H32.0002C18.7453 56.3042 8.00006 45.559 8.00006 32.3041C8.00006 19.0492 18.7453 8.30396 32.0002 8.30396C45.2551 8.30396 56.0004 19.0492 56.0004 32.3041C56.0004 33.4909 55.9141 34.6584 55.7472 35.8004H52.3878C52.581 34.6648 52.6818 33.4967 52.6818 32.3041C52.6818 20.8819 43.4224 11.6225 32.0002 11.6225C20.578 11.6225 11.3186 20.8819 11.3186 32.3041C11.3186 43.7263 20.578 52.9857 32.0002 52.9857H44.3008C41.1597 54.8579 37.5559 56.0349 33.7021 56.3042Z" fill="#06070A"/>
<path d="M48.8988 49.4301H32.0004C22.5419 49.4301 14.8743 41.7626 14.8743 32.3041C14.8743 22.8457 22.5419 15.1781 32.0004 15.1781C41.4588 15.1781 49.1264 22.8457 49.1264 32.3041C49.1264 33.5013 49.0033 34.6708 48.7689 35.8005H45.3617C45.6527 34.6849 45.8078 33.5135 45.8078 32.3041C45.8078 24.6785 39.626 18.4967 32.0004 18.4967C24.3747 18.4967 18.1929 24.6785 18.1929 32.3041C18.1929 39.9298 24.3747 46.1116 32.0004 46.1116H51.7059C50.8707 47.3013 49.9305 48.412 48.8988 49.4301Z" fill="#06070A"/>
<path d="M53.7721 42.5559H32C26.3381 42.5559 21.748 37.966 21.748 32.3041C21.748 26.6422 26.3381 22.0521 32 22.0521C37.6619 22.0521 42.2519 26.6422 42.2519 32.3041C42.2519 33.5309 42.0359 34.7086 41.6398 35.8004H37.9889C38.5894 34.7746 38.9334 33.5812 38.9334 32.3041C38.9334 28.4749 35.8292 25.3707 32 25.3707C28.1708 25.3707 25.0667 28.4749 25.0667 32.3041C25.0667 36.1333 28.1708 39.2374 32 39.2374H55.0453C54.7015 40.3818 54.2748 41.4903 53.7721 42.5559Z" fill="#06070A"/>
</g>
</g>
<rect x="0.5" y="0.803711" width="63" height="63" rx="31.5" stroke="#070B14" stroke-opacity="0.15"/>
<defs>
<clipPath id="clip0_11313_5368">
<rect y="0.303711" width="64" height="64" rx="32" fill="white"/>
</clipPath>
</defs>
</svg>

<svg xmlns="http://www.w3.org/2000/svg" width="64" height="65" fill="none" viewBox="0 0 64 65"><g clip-path="url(#ondo_svg-a)"><rect width="64" height="64" y=".304" fill="#fff" rx="32"/><path fill="#fff" fill-rule="evenodd" d="M32 .304c17.674 0 32 14.325 32 32 0 17.674-14.326 32-32 32s-32-14.326-32-32c0-17.675 14.326-32 32-32" clip-rule="evenodd"/><mask id="ondo_svg-b" width="49" height="49" x="8" y="8" maskUnits="userSpaceOnUse" style="mask-type:luminance"><path fill="#fff" d="M56 8.304H8v48h48z"/></mask><g fill="#06070A" mask="url(#ondo_svg-b)"><path d="M33.702 56.304H32c-13.255 0-24-10.745-24-24s10.745-24 24-24 24 10.745 24 24q0 1.782-.253 3.496h-3.36q.293-1.704.295-3.496c0-11.422-9.26-20.681-20.682-20.681s-20.68 9.259-20.68 20.681S20.578 52.986 32 52.986h12.3a23.9 23.9 0 0 1-10.598 3.318"/><path d="M48.899 49.43H32c-9.458 0-17.126-7.667-17.126-17.126 0-9.458 7.668-17.126 17.126-17.126s17.126 7.668 17.126 17.126c0 1.197-.123 2.367-.357 3.496h-3.407a14 14 0 0 0 .446-3.496c0-7.626-6.182-13.807-13.808-13.807s-13.807 6.182-13.807 13.807c0 7.626 6.182 13.808 13.807 13.808h19.706a24 24 0 0 1-2.807 3.318"/><path d="M53.772 42.556H32c-5.662 0-10.252-4.59-10.252-10.252S26.338 22.052 32 22.052s10.252 4.59 10.252 10.252a10.2 10.2 0 0 1-.612 3.496h-3.651A6.933 6.933 0 1 0 32 39.237h23.045a24 24 0 0 1-1.273 3.319"/></g></g><rect width="63" height="63" x=".5" y=".804" stroke="#070B14" stroke-opacity=".15" rx="31.5"/><defs><clipPath id="ondo_svg-a"><rect width="64" height="64" y=".304" fill="#fff" rx="32"/></clipPath></defs></svg>
